epam-assets/icon-sources/18/table-swap.svg

<svg width="18" height="18" viewBox="0 0 18 18" fill="none" xmlns="http://www.w3.org/2000/svg">
<g id="18/table-swap">
<g id="icon">
<path d="M5.25 5.11875V15H6.75V5.11875L7.95 6.3L9 5.25L6 2.25L3 5.25L4.05 6.3L5.25 5.11875Z" fill="#6C6F80"/>
<path d="M12.75 12.8812L12.75 3L11.25 3L11.25 12.8812L10.05 11.7L9 12.75L12 15.75L15 12.75L13.95 11.7L12.75 12.8812Z" fill="#6C6F80"/>
</g>
</g>
</svg>

<svg xmlns="http://www.w3.org/2000/svg" width="18" height="18" fill="none" viewBox="0 0 18 18">
  <path fill="#6C6F80" d="M5.25 5.119V15h1.5V5.119L7.95 6.3 9 5.25l-3-3-3 3L4.05 6.3l1.2-1.181Zm7.5 7.762V3h-1.5v9.881l-1.2-1.181L9 12.75l3 3 3-3-1.05-1.05-1.2 1.181Z"/>
</svg>
